!!! OTL: Berkowitz350
!!! Chapter: 1
!!! Section: III
!!! Page: 85
!!! Mode: 
!!! Encoder: DJB
**kern
*staff1
*I"Piano
=1-
*clefC3
*k[b-e-]
*B-:
*M3/4
4r
4r
8d\L
8e-\J
=2
4f\
4b-\
8a\L
8cc\J
=3
4b-\
4f\
4g\
=4
4e-\
4c\
8f\L
8e-\J
=5
8d\L
8c\J
4B-/
8B-/L
8c/J
=6
4d\
4g\
4f#\
=7
4g\
4a\
4b-\
=8
4a\
4f\
4en\
=9
2d\
4g\
=10
!!linebreak:original
8f#\L
8g\J
8a\L
8cc\J
8b-\L
8a\J
=11
4dd\
4g\
4b-\
=12
8a\L
8g\J
8f#\L
8d\J
8en\L
8f#\J
=13
2g\
4b-\
=14
4f\
4d\
8e-\L
8f\J
=15
4g\
4e-\
8f\L
8g\J
=16
4f\
8dd\L
8cc\J
8b-\L
8a\J
=17
2b-\
4r
==
*-
